X: 38439
T: Starry Nights Of Shetland, The
R: waltz
M: 3/4
K: Dmajor
|:Ad|f4 d2|A4 F2|G6|B6|A4 c2|e4 g2|f6|d4 Ad|
f4 d2|A4 F2|G6|B6|A4 c2|e4 f2|d6-|d4:|
|:ef|g3 f g2|B2 d2 g2|f3 e f2|A2 d2 f2|e3 ^d ef|g2 B2 c2|d2 c2 B2|A2 d2 f2|
g3 f g2|B2 d2 g2|f3 e f2|A2 d2 f2|e3 ^d ef|g2 B2 c2|d6-|d4:|

